src/svg/icon-payment.svg

<svg width="13" height="12" viewBox="0 0 13 12" fill="none" xmlns="http://www.w3.org/2000/svg">
<path fill-rule="evenodd" clip-rule="evenodd" d="M10.9486 1H6.57654C6.47654 1 6.3805 1.03981 6.30974 1.11057L1.64804 5.77226C1.56257 5.85774 1.51465 5.9734 1.51465 6.09434C1.51465 6.21528 1.56257 6.33094 1.64804 6.41642L6.09823 10.8666C6.1837 10.9521 6.29937 11 6.42031 11C6.54125 11 6.65691 10.9521 6.74238 10.8666L11.4041 6.20491C11.4748 6.13415 11.5146 6.03792 11.5146 5.93811V1.56604C11.5146 1.2534 11.2611 1 10.9486 1ZM6.60899 5.5283C7.3371 5.5283 7.92974 6.03604 7.92974 6.66038C7.92974 7.17226 7.53125 7.60528 6.98635 7.74472V8.16981H6.23163V7.74472C5.68672 7.60528 5.28823 7.17226 5.28823 6.66038H6.04295C6.04295 6.86132 6.30748 7.03774 6.60899 7.03774C6.9105 7.03774 7.17503 6.86132 7.17503 6.66038C7.17503 6.45943 6.9105 6.28302 6.60899 6.28302C5.88087 6.28302 5.28823 5.77528 5.28823 5.15094C5.28823 4.63906 5.68672 4.20604 6.23163 4.0666V3.64151H6.98635V4.0666C7.53125 4.20604 7.92974 4.63906 7.92974 5.15094H7.17503C7.17503 4.95 6.9105 4.77358 6.60899 4.77358C6.30748 4.77358 6.04295 4.95 6.04295 5.15094C6.04295 5.35189 6.30748 5.5283 6.60899 5.5283ZM9.2505 2.69811C9.2505 3.01057 9.50408 3.26415 9.81653 3.26415C10.129 3.26415 10.3826 3.01057 10.3826 2.69811C10.3826 2.38547 10.129 2.13208 9.81653 2.13208C9.50408 2.13208 9.2505 2.38547 9.2505 2.69811Z" fill="currentColor"/>
</svg>

<svg xmlns="http://www.w3.org/2000/svg" width="13" height="12" fill="none" viewBox="0 0 13 12"><path fill="currentColor" fill-rule="evenodd" d="M10.949 1H6.577a.38.38 0 0 0-.267.11L1.648 5.773a.455.455 0 0 0 0 .644l4.45 4.45a.455.455 0 0 0 .644 0l4.662-4.661a.38.38 0 0 0 .11-.267V1.566A.566.566 0 0 0 10.95 1M6.61 5.528c.728 0 1.32.508 1.32 1.132 0 .512-.398.945-.943 1.085v.425h-.754v-.425c-.545-.14-.944-.573-.944-1.085h.755c0 .201.264.378.566.378s.566-.177.566-.378c0-.2-.264-.377-.566-.377-.728 0-1.32-.508-1.32-1.132 0-.512.398-.945.943-1.084v-.425h.754v.425c.545.139.944.572.944 1.084h-.755c0-.201-.264-.377-.566-.377s-.566.176-.566.377c0 .2.264.377.566.377m2.642-2.83a.566.566 0 1 0 1.132 0 .566.566 0 0 0-1.132 0" clip-rule="evenodd"/></svg>
